X:1
T:Title
%%score { ( 1 3 ) | 2 }
L:1/8
M:4/4
K:Bb
V:1 treble nm="Grand Piano"
V:3 treble 
V:2 bass 
V:1
 z4 z2[Q:1/4=100] [DF]>[EG] | [DF]2 [DF]>[DB] [Fd]2 [Fd]>[Fd] |[M:3/4] cB BG [EG][DF] | %3
[M:1/4] [DF]>[EG] |[M:4/4] [DF]2 [DF]>[DB] [Fd]2 [Ge]>[Fd] |[M:9/8] [=Ec][EB][EA] [EB] c2- cF>G | %6
[M:4/4] [DF]2 [DF]>[DB] [Fd]2 [Fd]>[Fd] | [Ge][Ge][Ge][Ge] [Ge][Fd][Fd][Fd] | c2 F>F F2 F>A | %9
[M:7/8] ccd c [DB]3 |[M:1/4] Bd |[M:4/4] F6 z2 | B6 z2 | [Ge][Ge]dd cc[=EB][EB] | %14
[M:9/8] c6- c z z |[M:4/4] [DF]2 [DF]>[DB] [Fd]2 [Fd]>[Fd] |[M:3/4] [Ge][Ge] [Ge][Ge] [Fd]2 | %17
[M:1/4] [Fd][Fd] |[M:4/4] c2 F>F F2 F>A |[M:9/8] ccd c [DB]2- [DB] z z |] %20
V:2
 z4 z2 [B,,B,]>[B,,B,] | [B,,B,]2 [B,,B,]>[B,,F,] [B,,B,]2 [B,,B,]>[B,,B,] | %2
[M:3/4] [E,G,E][E,G,E] [E,G,E][E,B,E] [B,,B,][B,,B,] |[M:1/4] [B,,B,]>[B,,B,] | %4
[M:4/4] [B,,B,]2 [B,,B,]>[B,,F,] [B,,B,]2 [B,,B,]>[B,,B,] | %5
[M:9/8] [C,G,][C,G,][C,C] [C,C] [F,A,F]2- [F,A,F][F,A,E]>[F,A,E] | %6
[M:4/4] [B,,B,]2 [B,,B,]>[B,,F,] [B,,B,]2 [B,,B,]>[B,,B,] | %7
 [E,B,][E,B,][E,B,][E,B,] [B,,B,][B,,B,][B,,B,][B,,B,] | %8
 [F,A,E]2 [F,A,E]>[F,A,E] [F,A,E]2 [F,A,E]>[F,CE] |[M:7/8] [F,A,E][F,A,E][F,B,F] [F,A,E] [B,,F,]3 | %10
[M:1/4] z2 |[M:4/4] z2 [B,,B,][B,,B,] [B,,B,][B,,B,] z2 | %12
 z2 [B,,F,][B,,F,] [B,,F,]2 [F,A,F]>[F,B,F] | [F,C][F,C][F,B,F][F,B,F] [F,A,F][F,A,F][C,G,][C,G,] | %14
[M:9/8] [F,A,F]2 [F,A,]- [F,A,]/[G,B,]/ [A,C]2- [A,C][F,A,E]>[F,A,E] | %15
[M:4/4] [B,,B,]2 [B,,B,]>[B,,F,] [B,,B,]2 [B,,B,]>[B,,B,] | %16
[M:3/4] [E,B,][E,B,] [E,B,][E,B,] [B,,B,]2 |[M:1/4] [B,,B,][B,,B,] | %18
[M:4/4] [F,A,E]2 [F,A,E]>[F,A,E] [F,A,E]2 [F,A,E]>[F,CE] | %19
[M:9/8] [F,A,E][F,A,E][F,B,F] [F,A,E] [B,,F,B,]2- [B,,F,B,] z z |] %20
V:3
 x8 | x8 |[M:3/4] x6 |[M:1/4] x2 |[M:4/4] x8 |[M:9/8] x9 |[M:4/4] x8 | x8 | x8 |[M:7/8] x7 | %10
[M:1/4] x2 |[M:4/4] z2 DD DDGA | z2 DD D2 c>d | x8 |[M:9/8] z2 F- F/=E/ _E2- EF>G |[M:4/4] x8 | %16
[M:3/4] x6 |[M:1/4] x2 |[M:4/4] x8 |[M:9/8] x9 |] %20

